X: 8
T: Quam pulchra es Cycle / Tota pulchra es
N: Derived from Gas2017h-Quam_pulchra_es_Cycle-Tota_pulchra_es.krn
C: Gaspar van Weerbeke
%%abc-version 2.0
%%abcx-abcm2ps-target-version 5.9.1 (29 Sep 2008)
%%abc-creator hum2abc beta
%%abcx-conversion-date 2019/02/16 20:36:45
%%abc-edited-by Jesse Rodin
%%abc-edited-by Clare Bokulich
%%abcx-initial-encoding-date 2016/03/30/
%%humdrum-veritas 3135902195
%%humdrum-veritas-data 3376153332
%%linebreak <none>
%%barnumbers 0
L: 1/4
M: 3/1
Q: 1/2=120
%%staves [1 2 3 4]
V: 1 clef=treble
V: 2 clef=treble-8
V: 3 clef=treble-8
V: 4 clef=bass
K: F
[V:1] G8A4- | 
[V:2] d4e4f4 | 
[V:3] G8F3G | 
[V:4] G,4E,4D,4 | 
[V:1] A2G2E2F2G4 | 
[V:2] d2e4d4^c2 | 
[V:3] A2B4A4G2 | 
[V:4] F,2G,4F,2E,4 | 
[V:1] F6A2A2A2 | 
[V:2] d4d3efga2 | 
[V:3] A6A2d4 | 
[V:4] D,6F,2D,2F,2 | 
[V:1] B2A4G4^F2 | 
[V:2] g2e2f2d6 | 
[V:3] d2c4B2A4 | 
[V:4] G,2A,2F,2G,2D,4 | 
[V:1] G4z4B4 | 
[V:2] d4z2d2d2d2 | 
[V:3] G8z4 | 
[V:4] z2B,2B,6B,2 | 
[V:1] A4G2G3FG2 | 
[V:2] f4d6e2 | 
[V:3] A4B6B2 | 
[V:4] F,4G,6G,2 | 
[V:1] A4A3Bc4 | 
[V:2] f6d2c2d2 | 
[V:3] F8A4 | 
[V:4] D,6F,4D,2 | 
[V:1] d2c4B4A2 | 
[V:2] f8z2f2 | 
[V:3] B2A2B2d2c4 | 
[V:4] B,,2F,2D,2B,,2F,4 | 
[V:1] B4z2B2B2B2 | 
[V:2] d2d2d2d2g3f | 
[V:3] B4z2d2d2d2 | 
[V:4] z2G,2G,2G,2G,4 | 
[V:1] B4A2A4G2 | 
[V:2] d3ef4f2_e2- | 
[V:3] d4c2c4B2 | 
[V:4] B,4F,4F,2G,2- | 
[V:1] G4G4F4 | 
[V:2] edcBc4d4 | 
[V:3] B4G4A4 | 
[V:4] G,F,_E,D,E,4D,4 | 
[V:1] D2E3DG4^F2 | 
[V:2] z4z4d4 | 
[V:3] B2c4G2A4 | 
[V:4] G,2C,2E,4D,4 | 
[V:1] G4z2d4d2 | 
[V:2] d2d4g6 | 
[V:3] G4z4d4 | 
[V:4] z2B,4B,2G,4- | 
[V:1] B4G4c3B | 
[V:2] g8e4 | 
[V:3] d2B4G4c2- | 
[V:4] G,2G,2E,4C,4 | 
[V:1] A4F2F4E2 | 
[V:2] c2c4B2c4 | 
[V:3] c2c2A2F2G4 | 
[V:4] C,2F,4D,2C,4 | 
[V:1] F4B6A2 | 
[V:2] z2c2d2d2d2d2 | 
[V:3] F4z4z4 | 
[V:4] z4F,6D,2 | 
[V:1] G4F4B4 | 
[V:2] G4z2f2g4 | 
[V:3] B6A2G4 | 
[V:4] _E,4D,4E,4 | 
[V:1] A2c2B2G2F2G2- | 
[V:2] a4g4z2G2- | 
[V:3] F4B4A2B2 | 
[V:4] F,4G,4z2=E,2 | 
[V:1] G2E2F8 | 
[V:2] GABGA4F4 | 
[V:3] c4d8 | 
[V:4] E,4D,8 | 
[V:1] z2B2B2B4A2 | 
[V:2] z2f2f2f4f2 | 
[V:3] z2d2d2d4c2 | 
[V:4] z2B,,2B,,2B,,4F,2 | 
[V:1] A4G3FG2A2- | 
[V:2] f4d3cdef2- | 
[V:3] c4B3AB2c2- | 
[V:4] F,4G,6F,2- | 
[V:1] A2G2!fermata!^F4z4 ||  
[V:2] fec2!fermata!d4z4 ||  
[V:3] c2G2!fermata!A4z4 ||  
[V:4] F,2E,2!fermata!D,4z4 ||  
[V:1]  [K:F] [K:clef=treble][M:9/2]G4B2B4B2B4A2 | 
[V:2]  [K:F] [K:clef=treble-8][M:9/2]d6g6g4f2 | 
[V:3]  [K:F] [K:clef=treble-8][M:9/2]G6z6z6 | 
[V:4]  [K:F] [K:clef=bass][M:9/2]B,6G,4G,2E,4F,2 | 
[V:1] A4d4e3dd4^c2 | 
[V:2] f4f2g4f2d2e4 | 
[V:3] z18 | 
[V:4] D,6G,4A,2B,2A,4 | 
[V:1] d4z2d4c2d4e2 | 
[V:2] d2a2g2f4g2f4e2 | 
[V:3] d4c2d4e2f4g2 | 
[V:4] D,4E,2D,2F,2E,2D,4C,2 | 
[V:1] f4e2d2c3BB4A2 | 
[V:2] d4z2z6f4f2 | 
[V:3] f2d2c2f4_e2d2c4 | 
[V:4] D,2B,,2C,2B,,2_A,4B,2F,4 | 
[V:1] B4z2G4G2G4F2 | 
[V:2] f4d2_e6_e4d2 | 
[V:3] B4z2B4B2B4A2 | 
[V:4] B,,4z2_E,4E,2E,4F,2 | 
[V:1] F6G6G4E2 | 
[V:2] d4B2B4c2G3FG2 | 
[V:3] A4G2G6c6 | 
[V:4] D,4_E,2E,4C,2C,4=E,2 | 
[V:1] F3GABc2A2B2G4^F2 | 
[V:2] A4F2f4d2c2d4 | 
[V:3] d6c4B2c2A4 | 
[V:4] D,3E,F,G,A,2F,2G,2E,2D,4 | 
[V:1] G4z2z6z6 | 
[V:2] d4g2g4f2f4e2 | 
[V:3] G4B2B4A2F2G4 | 
[V:4] z18 | 
[V:1] z2z2D2F3GA2B2c4 | 
[V:2] f2d2z2z6z6 | 
[V:3] F4d2d4c2B4A2 | 
[V:4] z2z2D,2D,4F,2D,2C,4 | 
[V:1] F4z2z6z6 | 
[V:2] z2z2d2f4g2b4a2 | 
[V:3] B2F2z2z6z6 | 
[V:4] B,,4D2D4C2B,2C4 | 
[V:1] z18 | 
[V:2] b2f2z2z6z6 | 
[V:3] z2z2d2f4e2d4^c2 | 
[V:4] B,4B,2F,4G,2F,2E,4 | 
[V:1] z2z2D2F3GA2B2A3G | 
[V:2] z18 | 
[V:3] d2A2z2d4c2B2c4 | 
[V:4] D,4F,2B,,4z2z6 | 
[V:1] G4^F2G4A2A4G2 | 
[V:2] z6z4d2f4c2 | 
[V:3] B2A4G4F2F4G2 | 
[V:4] z6z4D,2D,4E,2 | 
[V:1] F4z2z6z6 | 
[V:2] !fermata!d6z2z2g2g4f2 | 
[V:3] !fermata!A6z6z6 | 
[V:4] !fermata!D,6z2z2G,2G,4B,2 | 
[V:1] z18 | 
[V:2] f4e2f2d2z2z6 | 
[V:3] z6z2z2d2d4c2 | 
[V:4] A,2G,4F,4D,2F,4F,2 | 
[V:1] z6z2z2D2F4G2 | 
[V:2] z6z2z2A2d2d2_e2 | 
[V:3] B4A2B2F2z2z6 | 
[V:4] D,2C,4B,,4z2z6 | 
[V:1] B4A2B2F2B2B4A2 | 
[V:2] d2c4B4z2z6 | 
[V:3] z6z2z2G2G4F2 | 
[V:4] z18 | 
[V:1] F2G4A2F2z2z6 | 
[V:2] z6z4d2f3ga2 | 
[V:3] F4E2F2D2z2z6 | 
[V:4] z6z4D2D4C2 | 
[V:1] z6z6z4d2 | 
[V:2] b2a3gg4^f2g4d2 | 
[V:3] z6z6z4B2 | 
[V:4] B,2C4B,2A,4G,4G,2 | 
[V:1] d3cB2!fermata!A6z6 | 
[V:2] g6!fermata!f6z2z2d2 | 
[V:3] B3GAB!fermata!d6z6 | 
[V:4] G,6!fermata!D,6z2z2G,2 | 
[V:1] z18 | 
[V:2] d3ef2f2g2g2a2f2z2 | 
[V:3] z6z6z4d2 | 
[V:4] G,4F,2F,4E,2F,2D,2D,2 | 
[V:1] z6z6z4D2 | 
[V:2] z18 | 
[V:3] d4c2B4A2B2F2d2 | 
[V:4] F,4F,2D,2C,2C,2B,,4z2 | 
[V:1] F3GA2B2A3GG4^F2 | 
[V:2] z18 | 
[V:3] d4c2B2c4B2A4 | 
[V:4] z18 | 
[V:1] G3ABcd3cB2A2B3A | 
[V:2] d4d2d4g2f2g4 | 
[V:3] G6G3ABcd4B2 | 
[V:4] B,4B,2B,3A,G,2D,2G,4 | 
[V:1] G4^F2G12 |]  
[V:2] e2d4d12 |]  
[V:3] c2A4G12 |]  
[V:4] C,2D,4G,12 |]  



